X: 10783
M: 6/8
L: 1/8
K: Gm	% and Bb
P: My boy Tammy.
d !segno!|:\
d |\
g2a b2g | f2e d2c | B2d f2d | dcB A2d |
("^>"g2b) ("^>"a2b) | ("^>"g2d) ("^>"d2c) | B2c d2c | BGD CB,D |\
P: Hooly and Fairly.
K: Bb
e<ge d<fd | c>dc efg | b>ag f<df | B>cB "^>"dc"^D.C."A |]


